X: 11435
Q: "Slow."
M: 3/4
L: 1/8
K: D
d2d2e2 | f2edcB | A2F2A2 | B2d4 |\
d2c2d2 | e2dcBA | A2f2e2 | d2czA2 |\
d2d2e2 | f2edcB | A2F2A2 | Bd3de |\
f2gfed | A2d2e2 | f2A2f>e | d4 |]
fg |\
a2bagf | f2e2f2 | g2B2e2 | d2c2B2 |\
d2d2e2 | f2edcB | A2F2A2 | Bd3de |\
f2gfed | A2d2e2 | f2A2f>e | d4 |]


